X: 1134
T: The Brokered Bridge
M: 12/8
L: 1/8
R: slid into a slide
K: D Major
|: A2 G | 
F2 D DDD F2 D A2 F | E2 A, A,A,A, E2 A, A,A,A, | 
F2 D DDD F2 D F2 A | Bcd e2 c d3 :|
|: ABc | 
d3 e2 g f2 d ddd | e2 c ccc d2 c B2 A |
[1 d3 e2 g f2 d ddd | e2 c ccc d3 :|
[2 a3 a2 f g2 f e2 g | fgf e2 c d2 B |]
